X: 09079
T: McINTYRE'S #2
C: Bob McQuillen 1 Dec 92
B: Bob's Note Book 9 #79
%R: reel, hornpipe
Z: 2018 John Chambers <jc:trillian.mit.edu>
M: C
L: 1/8
K: G
dc \
| BDGB AGFA | GBAG FDGF | EGcB ABAG | F2D2 D2GF |
| E2EG DGBG | FGAF G2Bd | cedc BGAG | D2G2 G2 :|
[K:D]|: FG \
| A2AB AGFE | DFAd f2gf | e2gf edcB | ABAG F2DF |
| A2AB AGFG | AFAd f2gf | efed ceag | f2d2 d2 :|
%%begintext align
%% This tune's for Don and Diane McIntyre of
%% Anchorage, AK and the reason for the #2 is because, when you say it, it
%% sounds just the same as the other one. So it's #2. See? Well, anyway,
%% Don and Diane are old friends; I met Don years ago in Billy McConiskey's
%% button box class at Augusta, and more recently, all three of us, along with
%% some other friends, had the best jam session ever at the Northwest Folklife
%% Festival in Seattle last year. That was such fun! I really love those pictures you
%% guys sent me of us playing together - Thanks ever so much!
%%endtext

%%sep 1 1 500

%%sep 1 1 500

